!!!COM: Bach, Johann Sebastian
!!!OPR: Joh. Seb. Bachs vierstimmige Choralges‰nge
!!!XEN: Four-part Chorales
!!!OTL: 97. Ich danke dir, o Gott in deinem Throne
!!!SCT: BWV 350
!!!SCA: Thematisch-systematisches Verzeichnis der musikalischen Werke Johann Sebastian Bach: Bach-Werke-Verzeichnis (Schmieder)
!!!YOR: Bach Gesellschaft Edition xxxix
!!!ENC: Steven Rasmussen
!!!CDT: 1685/3//-1750/7/28/
!!!OCY: Deutschland
!!!YEC: Copyright (c) 1994, 2000 Center for Computer Assisted Research in the Humanities
!!!YEM: Rights to all derivative editions reserved
!!!YEN: United States of America
**kern	**silbe	**kern	**kern	**kern
*I:[SOPRANO]	*I:[SOPRANO]	*I:[ALTO]	*I:[TENORE]	*I:[BASSO]
*clefG2	*	*clefG2	*clefGv2	*clefF4
*k[b-e-]	*	*k[b-e-]	*k[b-e-]	*k[b-e-]
*g:	*	*g:	*g:	*g:
*M4/4	*	*M4/4	*M4/4	*M4/4
4g	Ich	4d	8B-L	8GGL
.	.	.	8cJ	8AAJ
=1	=1	=1	=1	=1
4g	dan-	8gL	4d	4BB-
.	.	8fJ	.	.
4g	-ke	8e-L	4B-	4GG
.	.	8dJ	.	.
8fL	dir,	4c	8AL	4AA
8e-J	.	.	8GJ	.
4d	o	8cL	4F	4BB-
.	.	8B-J	.	.
=2	=2	=2	=2	=2
4f	Gott	4d	4B-	8BB-L
.	.	.	.	8AAJ
4g	in	8e-L	4B-	4GG
.	.	8dJ	.	.
4a	dei-	4e-	4c	8GGL
.	.	.	.	8FF#J
4g	-nem	4d	8cL	4GG
.	.	.	8B-J	.
=3	=3	=3	=3	=3
4g	Thro-	4e-	[4A	4C
4f#	.	4d	16ALL]	4D
.	.	.	16B-J	.
.	.	.	8cJ	.
4g;	-ne,	4d;	8cL	4GG;
.	.	.	8B-;J	.
4b-	durch	4g	4d	4GG
=4	=4	=4	=4	=4
4a	Je-	8gL	8.dL	4D
.	.	8f#J	.	.
.	.	.	16cJk	.
4g	-sum	8gL	4B-	4E-
.	.	8e-J	.	.
4f	Chri-	4c	8cL	8AAL
.	.	.	8AJ	8FFJ
4d	-stum,	8cL	4F	4BB-
.	.	16B-L	.	.
.	.	16cJJ	.	.
=5	=5	=5	=5	=5
4f	dei-	8dL	8B-L	4BB-
.	.	8cJ	8AJ	.
4g	-nem	4B-	4G	8E-L
.	.	.	.	8DJ
4a	lie-	8e-L	4c	4.C
.	.	8dJ	.	.
4g	-ben	4en	4B-	.
.	.	.	.	8C#
=6	=6	=6	=6	=6
4g	Soh-	2d	8B-L	2D
.	.	.	16AL	.
.	.	.	16GJ	.
4f#	.	.	16AL	.
.	.	.	16B-J	.
.	.	.	8cJ	.
4g;	-ne,	4d;	4B-;	4GG;
4dd	dass	4g	8B-L	8GGL
.	.	.	8cJ	8AAJ
=7	=7	=7	=7	=7
4dd	du	4g	8dL	8BB-L
.	.	.	16cL	8CJ
.	.	.	16B-JJ	.
4dd	mich	8gL	8AL	4D
.	.	8f#J	16B-L	.
.	.	.	16cJJ	.
4g	hast	4g	4B-	4E-
4cc	in	4g	4B-	4En
=8	=8	=8	=8	=8
4cc	die-	4d	4A	4F#
4b-	-ser	4d	8AL	4G
.	.	.	8GJ	.
4a	Nacht	8dL	8GL	4D
.	.	8cJ	8F#J	.
4g	be-	8B-L	8GL	4E-
.	.	8dJ	8B-J	.
=9	=9	=9	=9	=9
2f	-wah-	8cL	8AL	4AA
.	.	8B-J	8GJ	.
.	.	4c	4A	4FF
4d;	-ret	4B-;	4F;	4BB-;
4g	vor	4d	8B-L	8GGL
.	.	.	8cJ	8AAJ
=10	=10	=10	=10	=10
4g	Scha-	8dL	8dL	8BB-L
.	.	8e-J	16cL	8CJ
.	.	.	16B-JJ	.
4f#	-den	8dL	4A	4D
.	.	8cJ	.	.
4g	und	8B-L	4G	4E-
.	.	8cJ	.	.
4f#	vor	4d	4A	8DL
.	.	.	.	8CJ
=11	=11	=11	=11	=11
4g	man-	4d	4G	8BB-L
.	.	.	.	8CJ
4f#	-cher-	4c	4A	8BB-L
.	.	.	.	8AAJ
4g	-lei	4d	4B-	8GGL
.	.	.	.	8AAJ
4a	Ge-	4d	4A	8GGL
.	.	.	.	8FF#J
=12	=12	=12	=12	=12
2b-	-fah-	2d	4A	8GGL
.	.	.	.	8AA
.	.	.	4G	8BB-
.	.	.	.	8GGJ
4a;	-ren,	4d;	4F#;	4D;
4b-	und	4d	4G	4GG
=13	=13	=13	=13	=13
4a	bit-	8.dL	8GL	4D
.	.	.	8F#J	.
.	.	16cJk	.	.
4g	-te	4B-	8GL	4E-
.	.	.	8E-J	.
4f	dich,	4c	8CL	4AA
.	.	.	8FnJ	.
8dL	wollst	4B-	4F	8BB-L
8e-J	.	.	.	8CJ
=14	=14	=14	=14	=14
4f	mich	8AL	8FL	4D
.	.	16B-L	16GL	.
.	.	16cJJ	16AJJ	.
4f	an	16dLL	4B-	4D
.	.	16e-J	.	.
.	.	8fJ	.	.
4g	die-	8fL	4B-	4E-
.	.	8e-J	.	.
4f	-sem	8e-L	8.B-L	4BB-
.	.	8dJ	.	.
.	.	.	16AJk	.
=15	=15	=15	=15	=15
2e-	Ta-	8dL	2G	8CL
.	.	16cL	.	8D
.	.	16BnJJ	.	.
.	.	4c	.	8E-
.	.	.	.	8CJ
4d;	-ge	4B;	4G;	4G;
4dd	be-	4g	4B-	4GG
=16	=16	=16	=16	=16
4cc	-h√º-	8gL	4c	4AA
.	.	8f#J	.	.
4b-	-ten	4g	4d	8BB-L
.	.	.	.	8CJ
4a	auch	8gL	4d	4.D
.	.	16f#L	.	.
.	.	16enJJ	.	.
4f#	vor	4d	4A	.
.	.	.	.	8C
=17	=17	=17	=17	=17
4g	S√ºn-	8dL	4B-	4BB-
.	.	8enJ	.	.
8aL	-den,	8f#L	8cL	8AAL
8b-J	.	8gJ	8dJ	8GGJ
4cc	Schand'	4.a	8e-L	4FF#
.	.	.	8dJ	.
4b-	und	.	4d	4GG
.	.	8g	.	.
=18	=18	=18	=18	=18
2a	Pla-	8gL	8e-L	4C
.	.	16f#L	8c	.
.	.	16enJJ	.	.
.	.	4f#	8A	4D
.	.	.	8dJ	.
4g;	-ge.	4d;	4Bn;	4GG;
==|!	==|!	==|!	==|!	==|!
*-	*-	*-	*-	*-
!!!RWG: Key is interpreted using the Humdrum key tool.
!!!END: 1994/06/27
!!!EMD: Converted from MuseData to Humdrum Dec 19, 2000, by Andreas Kornstaedt using muse2kern.
!!!EED: Craig Stuart Sapp
!!!EEV: 2024/03/31
!!!ONB: Some non-unicode characters
